rospo-icon-theme-classic-common/64x64/places/folder-cyan-yandex-disk.svg

<svg height="64" width="64" xmlns="http://www.w3.org/2000/svg"><rect height="32" opacity=".2" rx="2.5" width="50" x="7" y="24"/><path d="m7 44.5c0 1.385 1.115 2.5 2.5 2.5h45c1.385 0 2.5-1.115 2.5-2.5v-27c0-1.385-1.115-2.5-2.5-2.5h-25.5v-2.5c0-1.385-1.115-2.5-2.5-2.5h-17c-1.385 0-2.5 1.115-2.5 2.5" fill="#0096aa"/><rect height="32" opacity=".2" rx="2.5" width="50" x="7" y="22"/><rect fill="#e4e4e4" height="20" rx="2.5" width="44" x="10" y="18"/><rect fill="#00bcd4" height="32" rx="2.5" width="50" x="7" y="23"/><path d="m9.5 10c-1.385 0-2.5 1.115-2.5 2.5v1c0-1.385 1.115-2.5 2.5-2.5h17c1.385 0 2.5 1.115 2.5 2.5v-1c0-1.385-1.115-2.5-2.5-2.5zm19.5 5v1h25.5c1.39 0 2.5 1.115 2.5 2.5v-1c0-1.385-1.11-2.5-2.5-2.5z" fill="#fff" opacity=".1"/><path d="m30.639 30c-4.235 0-4.329 2.827-5.553 4.73 1.5-.707 3.172-1.311 4.976-1.777 1.641-.423 3.295-.703 4.901-.83-1.019-.828-1.73-2.123-4.324-2.123zm5.812 4.049c-1.867.036-3.892.324-5.889.84-6.579 1.699-11.269 5.396-10.474 8.256.458 1.634 2.667 3.114 5.957 3.31-.002-.012-.005-.023-.006-.035 0-.001 0-.003 0-.004-.004-.029-.014-.055-.018-.084-.192-1.744.806-3.098 1.954-4.053 1.147-.955 2.619-1.646 4.285-2.017.809-.181 1.624-.272 2.426-.262h.002c1.202.015 2.312.239 3.289.793.806.457 1.543 1.251 1.857 2.232 3.003-1.835 4.555-4.307 4.082-6.033-.525-1.894-3.388-3.023-7.465-2.943zm-1.789 7.951c-.631-.008-1.299.066-1.967.215-2.756.614-4.855 2.36-4.685 3.898.17 1.539 2.542 2.287 5.299 1.672 2.756-.615 4.851-2.36 4.681-3.898-.123-1.119-1.434-1.863-3.328-1.887z" fill="#00424a"/></svg>

<svg xmlns="http://www.w3.org/2000/svg" width="64" height="64" version="1.1">
 <rect style="opacity:0.2" width="50" height="32" x="7" y="24" rx="2.5" ry="2.5"/>
 <path style="fill:#0096aa" d="M 7,44.5 C 7,45.885 8.115,47 9.5,47 H 54.5 C 55.885,47 57,45.885 57,44.5 V 17.5 C 57,16.115 55.885,15 54.5,15 H 29 V 12.5 C 29,11.115 27.885,10 26.5,10 H 9.5 C 8.115,10 7,11.115 7,12.5"/>
 <rect style="opacity:0.2" width="50" height="32" x="7" y="22" rx="2.5" ry="2.5"/>
 <rect style="fill:#dcdcdc" width="44" height="20" x="10" y="18" rx="2.5" ry="2.5"/>
 <rect style="fill:#00bcd4" width="50" height="32" x="7" y="23" rx="2.5" ry="2.5"/>
 <path style="opacity:0.1;fill:#ffffff" d="M 9.5,10 C 8.115,10 7,11.115 7,12.5 V 13.5 C 7,12.115 8.115,11 9.5,11 H 26.5 C 27.885,11 29,12.115 29,13.5 V 12.5 C 29,11.115 27.885,10 26.5,10 Z M 29,15 V 16 H 54.5 C 55.89,16 57,17.115 57,18.5 V 17.5 C 57,16.115 55.89,15 54.5,15 Z"/>
 <path style="fill:#00424A" d="M 30.639,30 C 26.404,30 26.31,32.827 25.086,34.73 26.586,34.023 28.258,33.419 30.062,32.953 31.703,32.53 33.357,32.25 34.963,32.123 33.944,31.295 33.233,30 30.639,30 Z M 36.451,34.049 C 34.584,34.085 32.559,34.373 30.562,34.889 23.983,36.588 19.293,40.285 20.088,43.145 20.546,44.779 22.755,46.259 26.045,46.455 26.043,46.443 26.04,46.432 26.039,46.42 26.039,46.419 26.039,46.417 26.039,46.416 26.035,46.387 26.025,46.361 26.021,46.332 25.829,44.588 26.827,43.234 27.975,42.279 29.122,41.324 30.594,40.633 32.26,40.262 33.069,40.081 33.884,39.99 34.686,40 H 34.688 C 35.89,40.015 37,40.239 37.977,40.793 38.783,41.25 39.52,42.044 39.834,43.025 42.837,41.19 44.389,38.718 43.916,36.992 43.391,35.098 40.528,33.969 36.451,34.049 Z M 34.662,42 C 34.031,41.992 33.363,42.066 32.695,42.215 29.939,42.829 27.84,44.575 28.01,46.113 28.18,47.652 30.552,48.4 33.309,47.785 36.065,47.17 38.16,45.425 37.99,43.887 37.867,42.768 36.556,42.024 34.662,42 Z"/>
</svg>
